X: 36917
T: Shooting
R: slip jig
M: 9/8
K: Gmajor
|:D|G>GG BAG B<dD|G2 G B2 G A2 D|
G>GG BAG B<dD|G>DG B2 A G2:|
|:z|d2 c BAG B d2|A2 A A2 B c3|
d2 c BAG B>dD|G>DG B2 A G2:|

